icons/trash.svg

<svg xmlns="http://www.w3.org/2000/svg" height="16" width="17"><path d="M6 1v2H2v1h2v11h9V4h2V3h-4V1H6zm1 1h3v1H7V2zM5 4h7v10H5V4zm1 2v6h1V6H6zm2 0v6h1V6H8zm2 0v6h1V6h-1z" fill="#fff"/></svg>

<svg xmlns="http://www.w3.org/2000/svg" height="16" width="17"><path d="M 6 1 L 6 2 L 6 3 L 2 3 L 2 4 L 4 4 L 4 14 L 4 15 L 13 15 L 13 14 L 13 4 L 15 4 L 15 3 L 11 3 L 11 2 L 11 1 L 6 1 z M 7 2 L 10 2 L 10 3 L 7 3 L 7 2 z M 5 4 L 12 4 L 12 14 L 5 14 L 5 4 z M 6 6 L 6 12 L 7 12 L 7 6 L 6 6 z M 8 6 L 8 12 L 9 12 L 9 6 L 8 6 z M 10 6 L 10 12 L 11 12 L 11 6 L 10 6 z " style="fill:#fff;"/></svg>
